src/next/cmd/lc_dbtableopen.svg

<svg height="24" viewBox="0 0 24 24" width="24" xmlns="http://www.w3.org/2000/svg" xmlns:xlink="http://www.w3.org/1999/xlink"><clipPath id="a"><rect height="50.571445" rx="4" width="114.62861" x="30.971436" y="942.46356"/></clipPath><filter id="b"><feGaussianBlur stdDeviation="1.5999062"/></filter><linearGradient id="c" gradientTransform="matrix(.11777685 0 0 .17033799 -1.341286 -69.362806)" gradientUnits="userSpaceOnUse" x1="399.77466" x2="399.77466" y1="731.09662" y2="480.60214"><stop offset="0" stop-color="#cbcbcd"/><stop offset=".5" stop-color="#e0e0e2"/><stop offset="1" stop-color="#f2f2f2"/></linearGradient><linearGradient id="d" gradientTransform="matrix(.11777685 0 0 .17033799 114.48257 275.18533)" gradientUnits="userSpaceOnUse" x1="-333.0289" x2="-333.0289" y1="-1473.6504" y2="-776.61371"><stop offset="0" stop-color="#fff"/><stop offset=".49140647" stop-color="#fff"/><stop offset="1" stop-color="#dcdcdc"/></linearGradient><linearGradient id="e" gradientUnits="userSpaceOnUse" x1="7.739838" x2="8" y1="1.357724" y2="14"><stop offset="0" stop-color="#587bcb"/><stop offset=".94117647" stop-color="#3f59ae"/><stop offset="1" stop-color="#3d7cdb"/></linearGradient><linearGradient id="f" gradientTransform="matrix(1.375 0 0 1 -1.375 0)" gradientUnits="userSpaceOnUse" x1="6.5" x2="6.5" y1="11" y2="12"><stop offset="0" stop-color="#2a3674"/><stop offset="1" stop-color="#174072" stop-opacity="0"/></linearGradient><linearGradient id="g" gradientUnits="userSpaceOnUse" x1="9" x2="9" y1="-7" y2="4"><stop offset="0" stop-color="#102134"/><stop offset="1" stop-color="#102134" stop-opacity="0"/></linearGradient><filter id="h" color-interpolation-filters="sRGB" height="1.267833" width="1.129187" x="-.064594" y="-.133917"><feGaussianBlur stdDeviation="3.1247207"/></filter><linearGradient id="i" gradientUnits="userSpaceOnUse" x1=".5" x2=".37741" y1="9" y2="3.309088"><stop offset="0" stop-color="#34608f"/><stop offset="1" stop-color="#34608f" stop-opacity="0"/></linearGradient><linearGradient id="j" gradientTransform="matrix(.21345221 0 0 .1138394 -5.411169 -103.22724)" gradientUnits="userSpaceOnUse" x1="121.39096" x2="124.01234" y1="994.62262" y2="935.34326"><stop offset="0"/><stop offset="1" stop-color="#34608f" stop-opacity="0"/></linearGradient><linearGradient id="k" gradientUnits="userSpaceOnUse" x1="55" x2="55" y1="1036.4132" y2="1032.4822"><stop offset="0" stop-color="#003d7b"/><stop offset="1" stop-color="#003d7b" stop-opacity="0"/></linearGradient><filter id="l" color-interpolation-filters="sRGB" height="1.697208" width="1.027888" x="-.013944" y="-.348604"><feGaussianBlur stdDeviation=".70882694"/></filter><filter id="m" color-interpolation-filters="sRGB" height="1.869989" width="1.027669" x="-.013834" y="-.434994"><feGaussianBlur stdDeviation=".70324038"/></filter><g transform="matrix(.1875 0 0 .1875 .000281 -2)"><path d="m84.34813 250.87833h77.88965c.76597 0 1.38257.72808 1.38261 1.63246l.003 62.7339c.00004.90439-.61664 1.63247-1.38261 1.63247h-77.890137c-.765966 0-1.382574-.72808-1.38261-1.63247l-.0025-62.7339c-.000037-.90438.616644-1.63246 1.38261-1.63246z" style="opacity:.4;fill:none;stroke:#000;stroke-width:4;stroke-linecap:round;stroke-linejoin:round;stroke-dashoffset:4;filter:url(#b)" transform="matrix(1.45455 0 0 1.45455 -115.33946 -343.57879)"/><g stroke-width="1.45455"><path d="m7.3410335 21.337806h113.3105365c1.11428 0 2.01131 1.059 2.01136 2.374437l.004 91.246657h-117.3336044l-.00366-91.246657c-.0000527-1.315437.8970675-2.374437 2.0113634-2.374437z" fill="url(#c)"/><path d="m76.905499 43.059009v-2.794715z" fill="#fff" fill-opacity=".756881"/><path d="m7.3296807 21.337806c-1.1142958 0-2.0000589 1.048207-2.0000062 2.363644l.00366 91.26825c.0000527 1.31543.8857104 2.36364 2.0000062 2.36364h113.3332493c1.1143 0 2.00005-1.04821 2-2.36364l-.004-91.26825c-.00005-1.315437-.8857-2.363644-2-2.363644zm1.3636406 3.545466h110.6059687c1.05857 0 1.90904.993036 1.90909 2.22728l.004 86.540958c.00005 1.23425-.85052 2.22728-1.90909 2.22728h-110.6059732c-1.0585807 0-1.9090447-.99303-1.9090968-2.22728l-.00366-86.540958c-.0000521-1.234244.8505161-2.22728 1.9090968-2.22728z" fill="url(#d)"/><path d="m5.33333 48.00005v15.99999h37.33331v-15.99999zm42.66664 0v15.99999h31.99998v-15.99999zm37.33331 0v15.99999h37.33331v-15.99999zm-79.99995 21.33332v21.33332h37.33331v-21.33332zm42.66664 0v21.33332h31.99998v-21.33332zm37.33331 0v21.33332h37.33331v-21.33332zm-79.99995 26.66665v21.33332h37.33331v-21.33332zm42.66664 0v21.33332h31.99998v-21.33332zm37.33331 0v21.33332h37.33331v-21.33332z" fill="#fff"/></g></g><g transform="translate(2 8)"><rect fill="url(#k)" filter="url(#l)" height="3.903995" opacity=".577143" rx="2.439995" ry="1.807204" transform="matrix(.125 0 0 .25614775 -.125 -251.09298)" width="140" x="33" y="1032.9701"/><path d="m-23.890648 13.13992h90.899429c2.216 0 4 .8652 4 1.94 0 1.0747-1.78433 1.902-4 1.94-36.945183.6329-51.602471.7782-90.899429 0-2.215566-.044-4-.8653-4-1.94 0-1.0748 1.784-1.94 4-1.94z" filter="url(#m)" opacity=".554286" transform="matrix(.17315572 0 0 .125 9.204424 12.35751)"/><path d="m5-1c-.5 0-.4685795.38698003-.5.5l-.5 1.5v7c0 .554.446 1 1 1h15c.554 0 1-.446 1-1v-7c0-.554-.446-1-1-1h-8.095703c-.084201-.4859507-.178001-1-.404297-1z" fill="#3b6ca9"/><path d="m5-1c-.5 0-.4629045.3887135-.5.5l-.5 1.5v7c0 .554.446 1 1 1v-8l.5-1h5.382813c.01334.068527.024.094239.03711.1699219.082672.4792195.498076.8295107.984374.8300781h1.095703 7v8c.554 0 1-.446 1-1v-7c0-.554-.446-1-1-1h-8.095703c-.084201-.4859507-.178001-1-.404297-1z" fill="url(#g)" opacity=".25"/><path clip-path="url(#a)" d="m56.984419 969.90368-26.012982-.46865v37.10607l118.000033-.02v-40.34321c0-2.54081-2.05961-4.59442-4.62097-4.58387l-75.366081.31046c-9.375263 0-5.067235 7.84799-12 8z" fill="#16375b" fill-opacity=".801471" filter="url(#h)" transform="matrix(.14830504 0 0 .14830504 -.59322 -138.2721)"/><path d="m5 7h4.5l1-1h10.5c.554 0 1 .446 1 1v6c0 .554-.446 1-1 1h-16c-.554 0-1-.446-1-1v-5c0-.554.4937484-.7749993 1-1z" fill="url(#e)"/><path d="m4 11h18v1h-18z" fill="#385da4"/><path d="m4 11h18v1h-18z" fill="url(#f)"/><path d="m4 12h18v.5h-18z" fill="#a4c0e8"/><path d="m10.5 6-1 1h-4.5c-.554 0-1 1-1 1v1c0-.554.4937484-.7749993 1-1h4.5l1-1h10.5c.554 0 1 .446 1 1v-1s-.451196-.9243029-1-1z" fill="#a4c0e8"/><path d="m6 1h4v.9999999h-4z" fill="#fcf9e9"/><path d="m9 1h1v.9999999h-1z" fill="#fbc66d"/><path d="m4.99805 7c-.5505375 0-.9925198.4410516-.9980469.9902344l.00195 5.0195316c.00023.02285.011948.042.013672.06445.0381089.321065.7510483.923754.9843749.925784.0003916.000003.00156 0 .00195 0l-.00195-7z" fill="url(#i)" opacity=".594286"/><path d="m21 6v8c.554 0 1-.446 1-1v-6c0-.554-.446-1-1-1z" fill="url(#j)" opacity=".405714"/></g></svg>

<?xml version="1.0" encoding="UTF-8" standalone="no"?>
<svg
   xmlns:dc="http://purl.org/dc/elements/1.1/"
   xmlns:cc="http://creativecommons.org/ns#"
   xmlns:rdf="http://www.w3.org/1999/02/22-rdf-syntax-ns#"
   xmlns:svg="http://www.w3.org/2000/svg"
   xmlns="http://www.w3.org/2000/svg"
   xmlns:xlink="http://www.w3.org/1999/xlink"
   xmlns:sodipodi="http://sodipodi.sourceforge.net/DTD/sodipodi-0.dtd"
   xmlns:inkscape="http://www.inkscape.org/namespaces/inkscape"
   height="24"
   viewBox="0 0 24 24"
   width="24"
   version="1.1"
   id="svg147"
   sodipodi:docname="lc_dbtableopen.svg"
   inkscape:version="0.92.4 (unknown)"
   inkscape:export-filename="/home/rizmut/Dokumen/Rizmut/Github/libreoffice-style-karasa-jaga/build/next/cmd/lc_dbtableopen.png"
   inkscape:export-xdpi="96"
   inkscape:export-ydpi="96">
  <metadata
     id="metadata153">
    <rdf:RDF>
      <cc:Work
         rdf:about="">
        <dc:format>image/svg+xml</dc:format>
        <dc:type
           rdf:resource="http://purl.org/dc/dcmitype/StillImage" />
        <dc:title></dc:title>
      </cc:Work>
    </rdf:RDF>
  </metadata>
  <defs
     id="defs151">
    <clipPath
       clipPathUnits="userSpaceOnUse"
       id="clipPath963">
      <rect
         id="rect965"
         y="942.46356"
         x="30.971436"
         width="114.62861"
         rx="4"
         height="50.571445"
         style="stroke-width:1" />
    </clipPath>
    <filter
       id="m-3">
      <feGaussianBlur
         stdDeviation="1.5999062"
         id="feGaussianBlur40-6" />
    </filter>
    <linearGradient
       id="o-7"
       gradientTransform="matrix(0.11777685,0,0,0.17033799,-1.341286,-69.362806)"
       gradientUnits="userSpaceOnUse"
       x1="399.77466"
       x2="399.77466"
       y1="731.09662"
       y2="480.60214">
      <stop
         offset="0"
         stop-color="#cbcbcd"
         id="stop50" />
      <stop
         offset=".5"
         stop-color="#e0e0e2"
         id="stop52" />
      <stop
         offset="1"
         stop-color="#f2f2f2"
         id="stop54" />
    </linearGradient>
    <linearGradient
       id="n-5"
       gradientTransform="matrix(0.11777685,0,0,0.17033799,114.48257,275.18533)"
       gradientUnits="userSpaceOnUse"
       x1="-333.0289"
       x2="-333.0289"
       y1="-1473.6504"
       y2="-776.61371">
      <stop
         offset="0"
         stop-color="#fff"
         id="stop43" />
      <stop
         offset=".49140647"
         stop-color="#fff"
         id="stop45" />
      <stop
         offset="1"
         stop-color="#dcdcdc"
         id="stop47" />
    </linearGradient>
  </defs>
  <sodipodi:namedview
     pagecolor="#ffffff"
     bordercolor="#666666"
     borderopacity="1"
     objecttolerance="10"
     gridtolerance="10"
     guidetolerance="10"
     inkscape:pageopacity="0"
     inkscape:pageshadow="2"
     inkscape:window-width="1366"
     inkscape:window-height="714"
     id="namedview149"
     showgrid="true"
     inkscape:snap-smooth-nodes="true"
     inkscape:zoom="20.083333"
     inkscape:cx="11.950207"
     inkscape:cy="12"
     inkscape:window-x="0"
     inkscape:window-y="28"
     inkscape:window-maximized="1"
     inkscape:current-layer="svg147">
    <inkscape:grid
       type="xygrid"
       id="grid960" />
  </sodipodi:namedview>
  <linearGradient
     id="a"
     gradientUnits="userSpaceOnUse"
     x1="7.739838"
     x2="8"
     y1="1.357724"
     y2="14">
    <stop
       offset="0"
       stop-color="#587bcb"
       id="stop2" />
    <stop
       offset=".94117647"
       stop-color="#3f59ae"
       id="stop4" />
    <stop
       offset="1"
       stop-color="#3d7cdb"
       id="stop6" />
  </linearGradient>
  <linearGradient
     id="b"
     gradientTransform="matrix(1.375,0,0,1,-1.375,0)"
     gradientUnits="userSpaceOnUse"
     x1="6.5"
     x2="6.5"
     y1="11"
     y2="12">
    <stop
       offset="0"
       stop-color="#2a3674"
       id="stop9" />
    <stop
       offset="1"
       stop-color="#174072"
       stop-opacity="0"
       id="stop11" />
  </linearGradient>
  <linearGradient
     id="c"
     gradientUnits="userSpaceOnUse"
     x1="9"
     x2="9"
     y1="-7"
     y2="4">
    <stop
       offset="0"
       stop-color="#102134"
       id="stop14" />
    <stop
       offset="1"
       stop-color="#102134"
       stop-opacity="0"
       id="stop16" />
  </linearGradient>
  <filter
     id="d"
     color-interpolation-filters="sRGB"
     height="1.267833"
     width="1.129187"
     x="-.064594"
     y="-.133917">
    <feGaussianBlur
       stdDeviation="3.1247207"
       id="feGaussianBlur19" />
  </filter>
  <linearGradient
     id="e"
     gradientUnits="userSpaceOnUse"
     x1="0.5"
     x2=".37741"
     y1="9"
     y2="3.309088">
    <stop
       offset="0"
       stop-color="#34608f"
       id="stop22" />
    <stop
       offset="1"
       stop-color="#34608f"
       stop-opacity="0"
       id="stop24" />
  </linearGradient>
  <linearGradient
     id="f"
     gradientTransform="matrix(0.21345221,0,0,0.1138394,-5.411169,-103.22724)"
     gradientUnits="userSpaceOnUse"
     x1="121.39096"
     x2="124.01234"
     y1="994.62262"
     y2="935.34326">
    <stop
       offset="0"
       id="stop27" />
    <stop
       offset="1"
       stop-color="#34608f"
       stop-opacity="0"
       id="stop29" />
  </linearGradient>
  <linearGradient
     id="g"
     gradientUnits="userSpaceOnUse"
     x1="55"
     x2="55"
     y1="1036.4132"
     y2="1032.4822">
    <stop
       offset="0"
       stop-color="#003d7b"
       id="stop32" />
    <stop
       offset="1"
       stop-color="#003d7b"
       stop-opacity="0"
       id="stop34" />
  </linearGradient>
  <filter
     id="h"
     color-interpolation-filters="sRGB"
     height="1.697208"
     width="1.027888"
     x="-.013944"
     y="-.348604">
    <feGaussianBlur
       stdDeviation=".70882694"
       id="feGaussianBlur37" />
  </filter>
  <filter
     id="i"
     color-interpolation-filters="sRGB"
     height="1.869989"
     width="1.027669"
     x="-.013834"
     y="-.434994">
    <feGaussianBlur
       stdDeviation=".70324038"
       id="feGaussianBlur40" />
  </filter>
  <clipPath
     id="k">
    <rect
       height="174.543"
       rx="2.439995"
       ry="4.499993"
       width="232.724"
       x="-75.676788"
       y="52.349762"
       id="rect46" />
  </clipPath>
  <filter
     id="l">
    <feGaussianBlur
       stdDeviation="2.028"
       id="feGaussianBlur49" />
  </filter>
  <filter
     id="m">
    <feGaussianBlur
       stdDeviation="1.8077645"
       id="feGaussianBlur52" />
  </filter>
  <linearGradient
     id="n"
     gradientTransform="matrix(1.003095 0 0 .98228452 -1.76555 .690988)"
     gradientUnits="userSpaceOnUse"
     x1="72"
     x2="72"
     y1="0"
     y2="116.40091">
    <stop
       offset="0"
       stop-color="#eeecec"
       id="stop55" />
    <stop
       offset=".40000001"
       stop-color="#f4f4f4"
       id="stop57" />
    <stop
       offset="1"
       stop-color="#f6f5f5"
       id="stop59" />
  </linearGradient>
  <radialGradient
     id="o"
     cx="64"
     cy="64.004021"
     fx="63.793392"
     fy="47.274845"
     gradientTransform="matrix(1.689423 -.08280186 .06907651 1.3515102 -50.111719 -17.741619)"
     gradientUnits="userSpaceOnUse"
     r="47.5"
     xlink:href="#p" />
  <linearGradient
     id="p">
    <stop
       offset="0"
       stop-color="#fff"
       id="stop63" />
    <stop
       offset="1"
       stop-color="#fff"
       stop-opacity="0"
       id="stop65" />
  </linearGradient>
  <clipPath
     id="q">
    <path
       d="m17.000001 8 .782827 110h57.5c1.675283 0 3.119418.18058 4.9-1.6 8.797935-8.79794 19.757642-19.851805 27.016212-27.175957 2.44056-2.462612 2.80096-4.47117 2.80096-6.724043v-74.5z"
       id="path68" />
  </clipPath>
  <filter
     id="r"
     color-interpolation-filters="sRGB"
     height="2.025501"
     width="1.957419"
     x="-.478709"
     y="-.512751">
    <feGaussianBlur
       stdDeviation="10.140743"
       id="feGaussianBlur71" />
  </filter>
  <filter
     id="s"
     height="1.408259"
     width="1.329301"
     x="-.164651"
     y="-.20413">
    <feGaussianBlur
       stdDeviation="4.2234282"
       id="feGaussianBlur74" />
  </filter>
  <linearGradient
     id="t"
     gradientTransform="matrix(1.4094273 0 0 1.4111689 -46.598939 -46.228314)"
     gradientUnits="userSpaceOnUse"
     x1="82.15696"
     x2="94.220871"
     y1="90.381706"
     y2="102.18401">
    <stop
       offset="0"
       stop-color="#fcfcfc"
       id="stop77" />
    <stop
       offset=".52275378"
       stop-color="#f8f8f8"
       id="stop79" />
    <stop
       offset=".72337759"
       stop-color="#f0efef"
       id="stop81" />
    <stop
       offset=".89024991"
       stop-color="#e3e1e1"
       id="stop83" />
    <stop
       offset="1"
       stop-color="#cecbcb"
       id="stop85" />
  </linearGradient>
  <radialGradient
     id="u"
     cx="90.750004"
     cy="110.252967"
     gradientUnits="userSpaceOnUse"
     r="24.501278"
     xlink:href="#p" />
  <clipPath
     id="v">
    <path
       d="m112 82.502986c0 4.465301-2.79749 6.409952-5.27972 8.093625-5.10854 3.46508-14.939114 3.32536-20.720284 3.40638-.081 5.781159.16586 15.504599-3.29922 20.613139-1.68367 2.48224-5.29051 5.38687-8.20078 5.38687 2.31803 0 4.74284-1.33476 7.58402-4.08481 9.14197-8.84873 17.36714-16.13535 25.673154-25.297529 1.91895-2.116745 4.24283-3.641881 4.24283-8.117675z"
       id="path89" />
  </clipPath>
  <filter
     id="w"
     color-interpolation-filters="sRGB">
    <feGaussianBlur
       stdDeviation=".43040059"
       id="feGaussianBlur92" />
  </filter>
  <g
     transform="matrix(0.1875,0,0,0.1875,2.8102672e-4,-1.9999997)"
     id="g69">
    <path
       inkscape:connector-curvature="0"
       d="m 84.34813,250.87833 h 77.88965 c 0.76597,0 1.38257,0.72808 1.38261,1.63246 l 0.003,62.7339 c 4e-5,0.90439 -0.61664,1.63247 -1.38261,1.63247 H 84.350643 c -0.765966,0 -1.382574,-0.72808 -1.38261,-1.63247 l -0.0025,-62.7339 c -3.7e-5,-0.90438 0.616644,-1.63246 1.38261,-1.63246 z"
       style="opacity:0.4;fill:none;stroke:#000000;stroke-width:4;stroke-linecap:round;stroke-linejoin:round;stroke-dashoffset:4;filter:url(#m-3)"
       transform="matrix(1.45455,0,0,1.45455,-115.33946,-343.57879)"
       id="path57" />
    <g
       style="stroke-width:1.45455003"
       id="g67">
      <path
         style="fill:url(#o-7)"
         inkscape:connector-curvature="0"
         d="M 7.3410335,21.337806 H 120.65157 c 1.11428,0 2.01131,1.059 2.01136,2.374437 l 0.004,91.246657 H 5.3333256 l -0.00366,-91.246657 c -5.27e-5,-1.315437 0.8970675,-2.374437 2.0113634,-2.374437 z"
         id="path59" />
      <path
         style="fill:#ffffff;fill-opacity:0.756881"
         inkscape:connector-curvature="0"
         d="M 76.905499,43.059009 V 40.264294 Z"
         id="path61" />
      <path
         style="fill:url(#n-5)"
         inkscape:connector-curvature="0"
         d="m 7.3296807,21.337806 c -1.1142958,0 -2.0000589,1.048207 -2.0000062,2.363644 l 0.00366,91.26825 c 5.27e-5,1.31543 0.8857104,2.36364 2.0000062,2.36364 H 120.66659 c 1.1143,0 2.00005,-1.04821 2,-2.36364 l -0.004,-91.26825 c -5e-5,-1.315437 -0.8857,-2.363644 -2,-2.363644 z m 1.3636406,3.545466 H 119.29929 c 1.05857,0 1.90904,0.993036 1.90909,2.22728 l 0.004,86.540958 c 5e-5,1.23425 -0.85052,2.22728 -1.90909,2.22728 H 8.6973168 c -1.0585807,0 -1.9090447,-0.99303 -1.9090968,-2.22728 L 6.78456,27.110552 c -5.21e-5,-1.234244 0.8505161,-2.22728 1.9090968,-2.22728 z"
         id="path63" />
      <path
         style="fill:#ffffff"
         inkscape:connector-curvature="0"
         d="M 5.33333,48.00005 V 64.00004 H 42.66664 V 48.00005 Z m 42.66664,0 V 64.00004 H 79.99995 V 48.00005 Z m 37.33331,0 v 15.99999 h 37.33331 V 48.00005 Z M 5.33333,69.33337 V 90.66669 H 42.66664 V 69.33337 Z m 42.66664,0 V 90.66669 H 79.99995 V 69.33337 Z m 37.33331,0 v 21.33332 h 37.33331 V 69.33337 Z M 5.33333,96.00002 v 21.33332 H 42.66664 V 96.00002 Z m 42.66664,0 v 21.33332 H 79.99995 V 96.00002 Z m 37.33331,0 v 21.33332 h 37.33331 V 96.00002 Z"
         id="path65" />
    </g>
  </g>
  <g
     transform="translate(2,8)"
     id="g145">
    <rect
       height="3.9039946"
       rx="2.4399951"
       ry="1.8072041"
       transform="matrix(0.125,0,0,0.25614775,-0.125,-251.09298)"
       width="140"
       x="33"
       y="1032.9701"
       id="rect95"
       style="opacity:0.57714299;fill:url(#g);filter:url(#h)" />
    <path
       d="m -23.890648,13.13992 h 90.899429 c 2.216,0 4,0.8652 4,1.94 0,1.0747 -1.78433,1.902 -4,1.94 -36.945183,0.6329 -51.602471,0.7782 -90.899429,0 -2.215566,-0.044 -4,-0.8653 -4,-1.94 0,-1.0748 1.784,-1.94 4,-1.94 z"
       transform="matrix(0.17315572,0,0,0.125,9.204424,12.35751)"
       id="path97"
       inkscape:connector-curvature="0"
       style="opacity:0.55428598;filter:url(#i)"
       sodipodi:nodetypes="sssccss" />
    <path
       d="M 5,-1 C 4.5,-1 4.5314205,-0.61301997 4.5,-0.5 L 4,1 v 7 c 0,0.554 0.446,1 1,1 h 15 c 0.554,0 1,-0.446 1,-1 V 1 C 21,0.446 20.554,0 20,0 H 11.904297 C 11.820096,-0.4859507 11.726296,-1 11.5,-1 Z"
       id="path99"
       inkscape:connector-curvature="0"
       style="fill:#3b6ca9"
       sodipodi:nodetypes="sscsssssscss" />
    <path
       d="M 5,-1 C 4.5,-1 4.5370955,-0.6112865 4.5,-0.5 L 4,1 V 8 C 4,8.554 4.446,9 5,9 V 1 L 5.5,0 h 5.382813 c 0.01334,0.068527 0.024,0.094239 0.03711,0.1699219 C 11.002595,0.6491414 11.417999,0.9994326 11.904297,1 H 13 20 v 8 c 0.554,0 1,-0.446 1,-1 V 1 C 21,0.446 20.554,0 20,0 H 11.904297 C 11.820096,-0.4859507 11.726296,-1 11.5,-1 Z"
       id="path101"
       style="opacity:0.25;fill:url(#c)"
       inkscape:connector-curvature="0"
       sodipodi:nodetypes="sscscccccccccssscss" />
    <path
       clip-path="url(#clipPath963)"
       d="m 56.984419,969.90368 -26.012982,-0.46865 0,37.10607 118.000033,-0.02 v -40.34321 c 0,-2.54081 -2.05961,-4.59442 -4.62097,-4.58387 l -75.366081,0.31046 c -9.375263,0 -5.067235,7.84799 -12,8 z"
       transform="matrix(0.14830504,0,0,0.14830504,-0.59322,-138.2721)"
       id="path125"
       inkscape:connector-curvature="0"
       style="fill:#16375b;fill-opacity:0.80147101;filter:url(#d)"
       sodipodi:nodetypes="ccccssccc" />
    <path
       d="m 5,7 h 4.5 l 1,-1 H 21 c 0.554,0 1,0.446 1,1 v 6 c 0,0.554 -0.446,1 -1,1 H 5 C 4.446,14 4,13.554 4,13 V 8 C 4,7.446 4.4937484,7.2250007 5,7 Z"
       id="path127"
       style="fill:url(#a)"
       inkscape:connector-curvature="0"
       sodipodi:nodetypes="cccsssssssc" />
    <path
       d="m 4,11 h 18 v 1 H 4 Z"
       id="path129"
       inkscape:connector-curvature="0"
       style="fill:#385da4"
       sodipodi:nodetypes="ccccc" />
    <path
       d="m 4,11 h 18 v 1 H 4 Z"
       id="path131"
       style="fill:url(#b)"
       inkscape:connector-curvature="0"
       sodipodi:nodetypes="ccccc" />
    <path
       d="m 4,12 h 18 v 0.5 H 4 Z"
       id="path133"
       inkscape:connector-curvature="0"
       style="fill:#a4c0e8"
       sodipodi:nodetypes="ccccc" />
    <path
       d="m 10.5,6 -1,1 H 5 C 4.446,7 4,8 4,8 V 9 C 4,8.446 4.4937484,8.2250007 5,8 h 4.5 l 1,-1 H 21 c 0.554,0 1,0.446 1,1 V 7 C 22,7 21.548804,6.0756971 21,6 Z"
       id="path135"
       inkscape:connector-curvature="0"
       style="fill:#a4c0e8"
       sodipodi:nodetypes="ccssccccscscc" />
    <path
       d="m 6,1 h 4 V 1.9999999 H 6 Z"
       id="path139"
       inkscape:connector-curvature="0"
       style="fill:#fcf9e9"
       sodipodi:nodetypes="ccccc" />
    <path
       d="m 9,1 h 1 V 1.9999999 H 9 Z"
       id="path137"
       inkscape:connector-curvature="0"
       style="fill:#fbc66d"
       sodipodi:nodetypes="ccccc" />
    <path
       d="M 4.99805,7 C 4.4475125,7 4.0055302,7.4410516 4.0000031,7.9902344 l 0.00195,5.0195316 c 2.3e-4,0.02285 0.011948,0.042 0.013672,0.06445 C 4.053734,13.395281 4.7666734,13.99797 5,14 c 3.916e-4,3e-6 0.00156,0 0.00195,0 L 5,7 Z"
       id="path141"
       style="opacity:0.59428603;fill:url(#e)"
       inkscape:connector-curvature="0"
       sodipodi:nodetypes="sccccccs" />
    <path
       d="m 21,6 v 8 c 0.554,0 1,-0.446 1,-1 V 7 C 22,6.446 21.554,6 21,6 Z"
       id="path143"
       style="opacity:0.40571403;fill:url(#f)"
       inkscape:connector-curvature="0"
       sodipodi:nodetypes="ccssc" />
  </g>
</svg>
